findly-builder/apps/searchassist/src/assets/icons/doc_logo.svg

<svg width="30" height="39" viewBox="0 0 30 39" fill="none" xmlns="http://www.w3.org/2000/svg">
<path d="M30 10.8333V36.8333C30 38.0304 29.0411 39 27.8571 39H2.14286C0.958929 39 0 38.0304 0 36.8333V2.16667C0 0.969583 0.958929 0 2.14286 0H19.2857L30 10.8333Z" fill="#85B7FE"/>
<path d="M19 0V8.8C19 10.0155 19.9845 11 21.2 11H30L19 0Z" fill="#0D6EFD"/>
<path d="M6.18182 25C8.39773 25 9.71165 23.6293 9.71165 21.3565C9.71165 19.0909 8.39773 17.7273 6.23153 17.7273H3.71733V25H6.18182ZM5.0348 23.8601V18.8672H6.15696C7.63423 18.8672 8.40483 19.6911 8.40483 21.3565C8.40483 23.0291 7.63423 23.8601 6.1179 23.8601H5.0348ZM13.2859 25.1065C14.8839 25.1065 15.8995 23.9808 15.8995 22.294C15.8995 20.6037 14.8839 19.4744 13.2859 19.4744C11.6879 19.4744 10.6722 20.6037 10.6722 22.294C10.6722 23.9808 11.6879 25.1065 13.2859 25.1065ZM13.293 24.0767C12.4087 24.0767 11.9755 23.2884 11.9755 22.2905C11.9755 21.2926 12.4087 20.4936 13.293 20.4936C14.163 20.4936 14.5962 21.2926 14.5962 22.2905C14.5962 23.2884 14.163 24.0767 13.293 24.0767ZM19.3699 25.1065C20.7406 25.1065 21.6142 24.2933 21.7065 23.1357H20.4778C20.3677 23.7216 19.9451 24.0589 19.3805 24.0589C18.5779 24.0589 18.0595 23.3878 18.0595 22.2727C18.0595 21.1719 18.5886 20.5114 19.3805 20.5114C19.9984 20.5114 20.3784 20.9091 20.4778 21.4347H21.7065C21.6177 20.2521 20.6944 19.4744 19.3627 19.4744C17.7647 19.4744 16.7562 20.6286 16.7562 22.294C16.7562 23.9453 17.7399 25.1065 19.3699 25.1065ZM23.7741 19.5455H22.4105L24.0298 22.2727L22.3679 25H23.7315L24.875 23.0362L26.0291 25H27.3821L25.7095 22.2727L27.3537 19.5455H25.9936L24.875 21.5589L23.7741 19.5455Z" fill="white"/>
</svg>

<svg width="30" height="39" fill="none" xmlns="http://www.w3.org/2000/svg"><path d="M30 10.833v26A2.154 2.154 0 0 1 27.857 39H2.143A2.154 2.154 0 0 1 0 36.833V2.167C0 .97.959 0 2.143 0h17.143L30 10.833Z" fill="#85B7FE"/><path d="M19 0v8.8a2.2 2.2 0 0 0 2.2 2.2H30L19 0Z" fill="#0D6EFD"/><path d="M6.182 25c2.216 0 3.53-1.37 3.53-3.643 0-2.266-1.314-3.63-3.48-3.63H3.717V25h2.465Zm-1.147-1.14v-4.993h1.122c1.477 0 2.248.824 2.248 2.49 0 1.672-.77 2.503-2.287 2.503H5.035Zm8.25 1.247c1.599 0 2.614-1.126 2.614-2.813 0-1.69-1.015-2.82-2.613-2.82s-2.614 1.13-2.614 2.82c0 1.687 1.016 2.813 2.614 2.813Zm.008-1.03c-.884 0-1.317-.789-1.317-1.787 0-.997.433-1.796 1.317-1.796.87 0 1.303.799 1.303 1.797 0 .997-.433 1.786-1.303 1.786Zm6.077 1.03c1.37 0 2.244-.814 2.336-1.971h-1.228c-.11.586-.533.923-1.098.923-.802 0-1.32-.671-1.32-1.786 0-1.101.529-1.762 1.32-1.762.618 0 .998.398 1.098.924h1.228c-.088-1.183-1.012-1.96-2.343-1.96-1.598 0-2.607 1.154-2.607 2.819 0 1.651.984 2.813 2.614 2.813Zm4.404-5.561H22.41l1.62 2.727L22.368 25h1.364l1.143-1.964L26.029 25h1.353l-1.673-2.727 1.645-2.727h-1.36l-1.119 2.013-1.1-2.014Z" fill="#fff"/></svg>
